X:2195
L:1/8
Q:1/8=160
M:6/8
K:G
"^A dorian" g/f/ |: eAA eAA | efe edB | eAA eAA | ded BAG | eAA eAA | efe edB | def gfg | 
 edc BAG :| def gfg | edB eAA | def gfg | edc BAG | def gfg | aba ab[ac'] | bag gfe | dge dBG :|

